packages/ffe-icons/icons/filled/sm/heap_snapshot_large.svg

<svg xmlns="http://www.w3.org/2000/svg" height="20" viewBox="0 -960 960 960" width="20"><path d="M575.955-250.001q15.814 0 26.929-11.07 11.115-11.07 11.115-26.884t-11.07-26.929q-11.07-11.115-26.884-11.115t-26.929 11.07q-11.115 11.07-11.115 26.884t11.07 26.929q11.07 11.115 26.884 11.115Zm-206.647-23.307q8.308 8.307 18.448 8.307 10.141 0 18.32-8.307l186-186q8.308-8.18 8.308-18.32 0-10.141-8.308-18.448-8.307-8.308-18.448-8.308t-18.32 8.308L367.924-308.692q-8.308 8.308-7.616 17.692.693 9.384 9 17.692Zm14.647-168.693q15.814 0 26.929-11.07 11.115-11.07 11.115-26.884t-11.07-26.929q-11.07-11.115-26.884-11.115t-26.929 11.07q-11.115 11.07-11.115 26.884t11.07 26.929q11.07 11.115 26.884 11.115Zm-107.93 326q-27.024 0-45.524-18.65t-18.5-45.658v-599.382q0-27.008 18.65-45.658 18.65-18.65 45.658-18.65h309.692l161.998 161.998v501.692q0 27.008-18.662 45.658-18.662 18.65-45.686 18.65H276.025Zm419.975-528L548.001-792v95.231q0 22.007 15.381 37.387 15.38 15.381 37.387 15.381H696Z"/></svg>

<svg xmlns="http://www.w3.org/2000/svg" height="20" viewBox="0 -960 960 960" width="20"><path d="M575.95-250q15.82 0 26.93-11.07Q614-272.14 614-287.95q0-15.82-11.07-26.93Q591.86-326 576.05-326q-15.82 0-26.93 11.07Q538-303.86 538-288.05q0 15.82 11.07 26.93Q560.14-250 575.95-250Zm-206.64-23.31q8.31 8.31 18.45 8.31 10.14 0 18.32-8.31l186-186q8.3-8.18 8.3-18.32t-8.3-18.45q-8.31-8.3-18.45-8.3-10.14 0-18.32 8.3L367.92-308.69q-8.3 8.31-7.61 17.69.69 9.38 9 17.69ZM383.95-442q15.82 0 26.93-11.07Q422-464.14 422-479.95q0-15.82-11.07-26.93Q399.86-518 384.05-518q-15.82 0-26.93 11.07Q346-495.86 346-480.05q0 15.82 11.07 26.93Q368.14-442 383.95-442ZM276.03-116q-27.03 0-45.53-18.65T212-180.31v-599.38q0-27.01 18.65-45.66Q249.3-844 276.31-844H586l162 162v501.69q0 27.01-18.66 45.66Q710.68-116 683.65-116H276.03ZM696-644 548-792v95.23q0 22.01 15.38 37.39Q578.76-644 600.77-644H696Z"/></svg>
